packages/icons/svg/Outline/edit-2.svg

<svg width="24" height="24" viewBox="0 0 24 24" fill="none" xmlns="http://www.w3.org/2000/svg">
<g id="Icon/Outline/edit-2">
<path id="Mask" fill-rule="evenodd" clip-rule="evenodd" d="M11.9831 7.32287L6.36614 12.9399L6.10214 15.8959L9.07914 15.6249L14.6791 10.0189L11.9831 7.32287ZM17.9661 6.72887L15.2711 4.03487L13.3231 5.98287L16.0181 8.67887L17.9661 6.72887ZM5.09114 17.9959C5.06014 17.9989 5.03014 17.9999 5.00014 17.9999C4.73614 17.9999 4.48114 17.8959 4.29314 17.7069C4.08314 17.4969 3.97714 17.2049 4.00414 16.9099L4.38314 12.7389C4.42514 12.2819 4.62714 11.8509 4.95214 11.5259L13.9481 2.52887C14.6501 1.82487 15.9241 1.85987 16.6641 2.59887L19.4021 5.33687H19.4031C20.1691 6.10387 20.1991 7.32087 19.4711 8.05087L10.4741 17.0479C10.1491 17.3739 9.71914 17.5749 9.26114 17.6169L5.09114 17.9959ZM5 20H19C19.55 20 20 20.45 20 21C20 21.55 19.55 22 19 22H5C4.45 22 4 21.55 4 21C4 20.45 4.45 20 5 20Z" fill="#000000"/>
</g>
</svg>

<svg fill="none" height="24" viewBox="0 0 24 24" width="24" xmlns="http://www.w3.org/2000/svg"><path clip-rule="evenodd" d="m11.9832 7.32275-5.61704 5.61695-.264 2.956 2.977-.271 5.60004-5.606zm5.983-.59384-2.695-2.694-1.948 1.948 2.695 2.696zm-12.875 11.26689c-.031.003-.061.004-.091.004-.264 0-.519-.104-.707-.293-.21-.21-.316-.502-.289-.797l.379-4.171c.042-.457.244-.888.569-1.213l8.996-8.99699c.702-.704 1.976-.669 2.716.07l2.738 2.738h.001c.766.767.796 1.98401.068 2.71401l-8.997 8.99698c-.325.326-.755.527-1.213.569zm-.0912 2.0041h14c.55 0 1 .45 1 1s-.45 1-1 1h-14c-.55 0-1-.45-1-1s.45-1 1-1z" fill="#6b7280" fill-rule="evenodd"/></svg>
